build/assets/img/svg/icon-element-3.svg

<svg width="849" height="289" viewBox="0 0 849 289" fill="none" xmlns="http://www.w3.org/2000/svg">
<path fill-rule="evenodd" clip-rule="evenodd" d="M825.4 185.197C812.129 197.18 796.74 205.53 789.278 209.501C778.783 215.086 758.84 222.044 732.221 229.486C705.528 236.949 651.915 249.288 613.92 256.929C537.938 272.21 444.315 281.728 353.326 286.876C262.405 292.02 173.803 288.494 108.058 268.831C75.1468 258.988 47.8668 245.072 28.9391 226.113C9.9983 207.141 -0.454271 183.243 0.0151562 153.601C0.954295 94.2968 39.1635 56.7142 96.6913 34.3025C154.018 11.9689 230.378 4.74586 307.787 5.68142C385.253 6.61767 464.071 15.7298 526.537 26.2529C557.775 31.5152 584.955 37.1356 605.861 42.2737C616.313 44.8423 625.219 47.2959 632.291 49.5301C639.318 51.7498 644.682 53.7984 647.944 55.5783L644.923 58.364C642.148 56.849 637.228 54.9369 630.276 52.7407C623.37 50.559 614.603 48.1415 604.24 45.5946C583.516 40.5014 556.499 34.9124 525.393 29.6724C463.173 19.1908 384.721 10.1263 307.703 9.19542C230.627 8.26389 155.289 15.4833 99.0754 37.3832C43.062 59.2049 5.88663 95.6468 4.96824 153.64C4.50891 182.646 14.7238 205.794 32.9811 224.081C51.2515 242.382 77.7002 255.937 109.982 265.592C174.625 284.926 262.271 288.502 352.933 283.372C443.527 278.246 536.823 268.782 612.569 253.548C650.439 245.932 703.893 233.628 730.405 226.216C756.99 218.784 776.387 211.967 786.306 206.689C793.703 202.753 808.654 194.629 821.505 183.026C834.355 171.423 844.959 156.475 843.984 138.862C843.011 121.278 830.474 100.681 796.026 77.7895C761.552 54.8812 685.268 29.7727 597.171 3.23503L599.107 0C687.475 26.6193 764.345 51.9222 799.412 75.2243C834.504 98.5433 847.895 119.956 848.934 138.724C849.971 157.465 838.671 173.214 825.4 185.197Z" fill="url(#paint0_linear)"/>
<defs>
<linearGradient id="paint0_linear" x1="0" y1="144.684" x2="849" y2="144.684" gradientUnits="userSpaceOnUse">
<stop stop-color="#FEED01"/>
<stop offset="1" stop-color="#C1B500"/>
</linearGradient>
</defs>
</svg>

<svg width="849" height="289" fill="none" xmlns="http://www.w3.org/2000/svg"><path fill-rule="evenodd" clip-rule="evenodd" d="M825.4 185.197c-13.271 11.983-28.66 20.333-36.122 24.304-10.495 5.585-30.438 12.543-57.057 19.985-26.693 7.463-80.306 19.802-118.301 27.443-75.982 15.281-169.605 24.799-260.594 29.947-90.921 5.144-179.523 1.618-245.268-18.045-32.911-9.843-60.191-23.759-79.119-42.718C10 207.141-.454 183.243.015 153.601c.94-59.304 39.148-96.887 96.676-119.298C154.018 11.969 230.378 4.746 307.787 5.68c77.466.937 156.284 10.049 218.75 20.572 31.238 5.262 58.418 10.883 79.324 16.02 10.452 2.57 19.358 5.023 26.43 7.257 7.027 2.22 12.391 4.268 15.653 6.048l-3.021 2.786c-2.775-1.515-7.695-3.427-14.647-5.623-6.906-2.182-15.673-4.6-26.036-7.146-20.724-5.094-47.741-10.683-78.847-15.923-62.22-10.481-140.672-19.546-217.69-20.477-77.076-.931-152.414 6.288-208.628 28.188C43.062 59.205 5.887 95.647 4.968 153.64c-.46 29.006 9.756 52.154 28.013 70.441 18.27 18.301 44.72 31.856 77.001 41.511 64.643 19.334 152.289 22.91 242.951 17.78 90.594-5.126 183.89-14.59 259.636-29.824 37.87-7.616 91.324-19.92 117.836-27.332 26.585-7.432 45.982-14.249 55.901-19.527 7.397-3.936 22.348-12.06 35.199-23.663 12.85-11.603 23.454-26.551 22.479-44.164-.973-17.584-13.51-38.181-47.958-61.072-34.474-22.91-110.758-48.017-198.855-74.556L599.107 0c88.368 26.62 165.238 51.922 200.305 75.224 35.092 23.32 48.483 44.732 49.522 63.5 1.037 18.741-10.263 34.49-23.534 46.473z" fill="url(#paint0_linear)"/><defs><linearGradient id="paint0_linear" x1="0" y1="144.684" x2="849" y2="144.684" gradientUnits="userSpaceOnUse"><stop stop-color="#FEED01"/><stop offset="1" stop-color="#C1B500"/></linearGradient></defs></svg>
